app/img/contact/ic_email_1.svg

<svg width="24" height="18" viewBox="0 0 24 18" fill="none" xmlns="http://www.w3.org/2000/svg">
    <path fill-rule="evenodd" clip-rule="evenodd"
          d="M1.03136 0.0335458C1.07659 0.0196367 1.12335 0.00981906 1.17088 0.00409178C1.19695 0.00163724 1.22302 0.00163636 1.24909 0H22.7158C22.7418 0.00163636 22.7679 0.00245542 22.794 0.00409178L22.7993 0.00490952C22.8238 0.00900042 22.8476 0.0114545 22.8714 0.0171817C22.9189 0.0278181 22.9649 0.0425456 23.0086 0.062182L23.0278 0.0703624L23.0462 0.0793637L23.0638 0.0891828L23.0746 0.09491L23.0845 0.100637C23.1098 0.115365 23.1344 0.131726 23.1581 0.149726C23.2049 0.184908 23.2471 0.22582 23.2846 0.270001L23.2923 0.279817C23.3605 0.362454 23.4127 0.45982 23.4449 0.565365C23.4564 0.60382 23.4648 0.642273 23.4701 0.680728C23.477 0.720001 23.4809 0.760909 23.4816 0.801L23.4824 0.818182V17.1818V17.1826C23.4824 17.1908 23.4824 17.199 23.4824 17.2072C23.4801 17.2792 23.4686 17.3504 23.4495 17.4183V17.4191V17.4199L23.4464 17.4289L23.4456 17.4322L23.4449 17.4346L23.4426 17.4412L23.4418 17.4436V17.4453C23.4403 17.4494 23.4387 17.4535 23.4372 17.4575V17.4592C23.4127 17.5304 23.3797 17.5975 23.3383 17.658L23.3375 17.6596L23.3368 17.6605L23.3352 17.6629L23.3329 17.6662L23.3306 17.6695L23.3291 17.6719L23.3283 17.6735L23.3268 17.6752L23.3237 17.6785L23.3214 17.6825L23.3207 17.6834V17.6842C23.2271 17.8118 23.0991 17.9092 22.9527 17.9599C22.9465 17.9624 22.9412 17.964 22.935 17.9656C22.9182 17.9714 22.9005 17.9763 22.8829 17.9804C22.8285 17.9935 22.7725 18 22.7165 18H22.7158H1.24909C1.20846 18 1.16858 17.9967 1.12948 17.9902C1.09958 17.9853 1.07045 17.9779 1.04209 17.9697C1.03212 17.9665 1.02215 17.9632 1.01218 17.9599C0.890284 17.9174 0.780651 17.8421 0.693251 17.7439C0.631917 17.6752 0.581322 17.595 0.545289 17.5066C0.540689 17.4952 0.53609 17.4837 0.532257 17.4715L0.531485 17.469L0.529952 17.4657L0.52842 17.4616V17.46C0.525353 17.4518 0.522285 17.4428 0.519985 17.4346L0.519225 17.433V17.4314L0.515388 17.4199V17.4191C0.500821 17.3667 0.490854 17.3127 0.485487 17.2587C0.483187 17.2334 0.482422 17.208 0.482422 17.1826V17.1818V0.818182V0.817364C0.482422 0.808364 0.482427 0.799363 0.483194 0.790363C0.484727 0.731454 0.492393 0.674183 0.506193 0.617728C0.510026 0.600546 0.514619 0.583365 0.519985 0.565365C0.552185 0.459002 0.605083 0.361636 0.673316 0.279L0.674089 0.278182L0.674861 0.277364L0.676393 0.274908L0.677926 0.273272C0.733126 0.207 0.799051 0.149726 0.873418 0.104726C0.897951 0.0899987 0.923257 0.0769106 0.948557 0.065456L0.958524 0.0613643L0.959284 0.0605465L0.961589 0.0597288L0.964654 0.0589079C0.979987 0.0515443 0.996084 0.045818 1.01218 0.0400907L1.01679 0.0384553H1.01755L1.02676 0.0351812L1.03136 0.0335458ZM15.0422 10.152C14.6198 10.5505 14.1375 10.8679 13.6085 11.0806C13.0213 11.3171 12.3888 11.4226 11.7616 11.3907C11.1698 11.3605 10.584 11.2075 10.0458 10.9415C9.64179 10.7411 9.26995 10.4785 8.93722 10.1651C7.04279 12.2801 5.06632 14.31 3.11132 16.3636H20.8083C18.8548 14.328 16.9658 12.2212 15.0422 10.152ZM21.9491 2.80064C20.0255 4.87227 18.1142 6.95864 16.1615 8.99836C18.1365 11.0135 20.0317 13.1155 21.9491 15.1945V2.80064ZM7.83015 8.99918L2.01576 2.79327V15.1462C3.92092 13.0631 5.89355 11.0495 7.83015 8.99918ZM14.5071 8.42154L20.865 1.63636H3.09982C5.18976 3.86673 7.24365 6.13555 9.36118 8.334C9.42328 8.38146 9.47773 8.43791 9.52296 8.50173C9.63873 8.622 9.75449 8.74146 9.87102 8.86091C9.91856 8.90837 9.96762 8.955 10.0175 9C10.3011 9.25036 10.6201 9.44673 10.9674 9.57682C11.7271 9.85991 12.5812 9.81082 13.308 9.44018C13.6223 9.279 13.9052 9.06055 14.1529 8.79955L14.5071 8.42154Z"
          fill="#5E2CE6"/>
</svg>

<svg width="24" height="18" fill="none" xmlns="http://www.w3.org/2000/svg"><path fill-rule="evenodd" clip-rule="evenodd" d="M1.031.034a.8.8 0 0 1 .14-.03L1.249 0h21.467l.078.004h.005c.025.005.049.007.072.013.048.01.094.026.138.045l.019.008.018.01.018.01.01.005.01.006a.723.723 0 0 1 .2.169l.008.01a.83.83 0 0 1 .19.521v16.406a.886.886 0 0 1-.032.211v.001l-.004.01v.003l-.001.003-.002.006-.001.003v.001l-.005.012v.002a.83.83 0 0 1-.099.199v.002h-.001l-.002.003-.002.003-.002.003-.002.003v.002l-.002.001-.003.003-.003.005v.001a.774.774 0 0 1-.438.296.712.712 0 0 1-.166.02H1.248a.728.728 0 0 1-.556-.256.823.823 0 0 1-.16-.273L.53 17.47l-.001-.003-.002-.004v-.002a.328.328 0 0 1-.008-.025v-.004l-.005-.011a.952.952 0 0 1-.033-.237V.818L.483.79A.812.812 0 0 1 .52.565.827.827 0 0 1 .673.28h.001V.276L.677.275.678.273a.781.781 0 0 1 .27-.208l.01-.004H.96L.962.06.965.059 1.012.04l.005-.002.01-.003.004-.001Zm14.011 10.118a4.587 4.587 0 0 1-1.434.929 4.36 4.36 0 0 1-3.562-.14 4.6 4.6 0 0 1-1.109-.776c-1.894 2.115-3.87 4.145-5.826 6.199h17.697c-1.953-2.036-3.842-4.143-5.766-6.212Zm6.907-7.351c-1.924 2.071-3.835 4.158-5.788 6.197 1.976 2.016 3.87 4.118 5.788 6.197V2.8ZM7.83 8.999 2.016 2.793v12.353C3.92 13.063 5.894 11.05 7.83 9Zm6.677-.577 6.358-6.786H3.1c2.09 2.23 4.144 4.5 6.261 6.698a.775.775 0 0 1 .162.168c.116.12.231.24.348.359a3.055 3.055 0 0 0 1.096.716c.76.283 1.614.234 2.341-.137.314-.161.597-.38.845-.64l.354-.378Z" fill="#5E2CE6"/></svg>
